packages/dnb-ui-lib/assets/icons/print_medium.svg

<svg width="24" height="24" viewBox="0 0 24 24" fill="none" xmlns="http://www.w3.org/2000/svg">
<path fill-rule="evenodd" clip-rule="evenodd" d="M5.99976 2.24991C5.99976 1.83571 6.33553 1.49994 6.74973 1.49994H17.2493C17.6635 1.49994 17.9993 1.83571 17.9993 2.24991V5.99976H5.99976V2.24991ZM4.49982 5.99976V2.24991C4.49982 1.00732 5.50714 0 6.74973 0H17.2493C18.4919 0 19.4992 1.00732 19.4992 2.24991V5.99976H21.7491C22.9917 5.99976 23.999 7.00707 23.999 8.24966V15.7494C23.999 16.992 22.9917 17.9993 21.7491 17.9993H19.4992V23.2491C19.4992 23.6633 19.1634 23.999 18.7492 23.999H5.24979C4.83559 23.999 4.49982 23.6633 4.49982 23.2491V17.9993H2.24991C1.00732 17.9993 0 16.992 0 15.7494V8.24966C0 7.00707 1.00732 5.99976 2.24991 5.99976H4.49982ZM5.24979 7.49969H2.24991C1.83571 7.49969 1.49994 7.83547 1.49994 8.24966V15.7494C1.49994 16.1636 1.83571 16.4993 2.24991 16.4993H4.49982V12.7495C4.49982 12.3353 4.83559 11.9995 5.24979 11.9995H18.7492C19.1634 11.9995 19.4992 12.3353 19.4992 12.7495V16.4993H21.7491C22.1633 16.4993 22.4991 16.1636 22.4991 15.7494V8.24966C22.4991 7.83547 22.1633 7.49969 21.7491 7.49969H18.7492H5.24979ZM17.9993 13.4995V17.2493V22.4991H5.99976V17.2493V13.4995H17.9993ZM3.74985 8.99963C3.33565 8.99963 2.99988 9.33541 2.99988 9.7496C2.99988 10.1638 3.33565 10.4996 3.74985 10.4996H5.24979C5.66398 10.4996 5.99976 10.1638 5.99976 9.7496C5.99976 9.33541 5.66398 8.99963 5.24979 8.99963H3.74985ZM7.49969 15.7494C7.49969 15.3352 7.83547 14.9994 8.24966 14.9994H15.7494C16.1636 14.9994 16.4993 15.3352 16.4993 15.7494C16.4993 16.1636 16.1636 16.4993 15.7494 16.4993H8.24966C7.83547 16.4993 7.49969 16.1636 7.49969 15.7494ZM8.24966 17.9993C7.83547 17.9993 7.49969 18.335 7.49969 18.7492C7.49969 19.1634 7.83547 19.4992 8.24966 19.4992H13.4995C13.9136 19.4992 14.2494 19.1634 14.2494 18.7492C14.2494 18.335 13.9136 17.9993 13.4995 17.9993H8.24966Z" fill="black"/>
</svg>

<svg width="24" height="24" viewBox="0 0 24 24" fill="none" xmlns="http://www.w3.org/2000/svg"><path fill-rule="evenodd" clip-rule="evenodd" d="M6 2.25a.75.75 0 01.75-.75h10.5a.75.75 0 01.75.75V6H6V2.25zM4.5 6V2.25A2.25 2.25 0 016.75 0h10.5a2.25 2.25 0 012.25 2.25V6h2.25a2.25 2.25 0 012.249 2.25v7.5a2.25 2.25 0 01-2.25 2.25H19.5v5.25a.75.75 0 01-.75.749H5.25a.75.75 0 01-.75-.75V18H2.25A2.25 2.25 0 010 15.75v-7.5A2.25 2.25 0 012.25 6H4.5zm.75 1.5h-3a.75.75 0 00-.75.75v7.5c0 .414.336.75.75.75H4.5v-3.75a.75.75 0 01.75-.75h13.5a.75.75 0 01.75.75v3.75h2.25a.75.75 0 00.75-.75v-7.5a.75.75 0 00-.75-.75H5.25zm12.75 6v9H6v-9h12zM3.75 9a.75.75 0 000 1.5h1.5a.75.75 0 000-1.5h-1.5zm3.75 6.75a.75.75 0 01.75-.75h7.5a.75.75 0 010 1.5h-7.5a.75.75 0 01-.75-.75zM8.25 18a.75.75 0 100 1.5h5.25a.75.75 0 000-1.5H8.25z" fill="#000"/></svg>
